X: 2
T: The Easy Club
R: reel
M: 4/4
L: 1/8
K: Amaj
|:AEAc BEBd|cAce dcde|faa e2cce|ceec dcBc|AEAc BEBd|cABc defg|agae faec|1dcBc A2cB:|2dcBc Aaga||:f3 d2 aga|e3 c2 aga|f3 d2 aga|ceec dcBc|ABcABcdB|cdec defg|agae faec|1dBGB A aga:|2dBGB A4||


Tune 955	Setting 26331

